X:125
T: EEN KIND EN EEN KLEYNE KIND
N: E0064
O: Europa, Mitteleuropa, Deutschland
R: erzaehlendes Volks - Lied, Sage, Mord
M: 2/4
L: 1/8
K: G
D | G2GB | G2Bd | dcBA | G2
Bd | dcBA | G2B2 | A2z
A | A2B2 | c2BA | GABG | E2
FG | A2d2 | cBAG | F2A2 | G2z

@@@ Tune index: 3775
